images_sukapura_svg/cmd/sc_showtrackedchanges.svg

<svg viewBox="0 0 16 16" xmlns="http://www.w3.org/2000/svg" xmlns:xlink="http://www.w3.org/1999/xlink"><linearGradient id="a" gradientUnits="userSpaceOnUse" x1="10" x2="11.500001" y1="4" y2="2.499999"><stop offset="0" stop-color="#fff"/><stop offset=".77967989" stop-color="#f1f1f1"/><stop offset="1" stop-color="#d5d5d5"/></linearGradient><radialGradient id="b" cx="10.994179" cy="4.42844" gradientTransform="matrix(1.4 .00000004 -.00000001 1.2 -4.39185 -2.314129)" gradientUnits="userSpaceOnUse" r="5"><stop offset="0" stop-color="#d7d7d7"/><stop offset=".49894297" stop-color="#f7f7f7"/><stop offset="1" stop-color="#fff"/></radialGradient><linearGradient id="c" gradientUnits="userSpaceOnUse" x1="-6.5" x2="-6.5" y1="13.5" y2="9.5"><stop offset="0" stop-color="#0040dd"/><stop offset="1" stop-color="#0a84ff"/></linearGradient><path d="m3 1v14h10v-9.3632812-1.9316407l-2.695312-2.7050781zm10 12.496094-1.494141 1.503906h1.494141z" fill="url(#b)"/><path d="m3 0c-.554 0-1 .446-1 1v14c0 .554.446 1 1 1h2 .234375 5.261719 1.503906 1c.554 0 1-.446 1-1v-2.511719-6.894531-1.09375-.8632812l-3.636719-3.6367188h-.863281zm0 1h6v3.5c0 .277.223.5.5.5h3.5v.6367188 7.8632812 1.5h-1-.494141-6.2812496-.2246094-2zm7 0 3 3h-3zm-5.5 3c-.277 0-.5.223-.5.5s.223.5.5.5h3c.277 0 .5-.223.5-.5s-.223-.5-.5-.5zm0 6c-.277 0-.5.223-.5.5s.223.5.5.5h2.6777344l.7578125-.732422c-.0840546-.157278-.24408-.267578-.4355469-.267578zm0 3c-.277 0-.5.223-.5.5s.223.5.5.5h.9941406l.2695313-1z" fill="#98989d"/><rect fill="#ff9f0a" height="1" ry=".5" width="7" x="4" y="7"/><path d="m10 1 3 3h-3z" fill="url(#a)"/><path d="m7.9980469 6c-1.7882375.0023465-3.503757.4889435-4.9980469 1.3554688-.347433.2014732-.678824.4278912-1 .6699218v4.4042974c.2846051-.455014.6281379-.859687 1-1.236329.0691983-.070087.1358737-.142903.2070312-.210937-.0733478.339227-.2070312.657267-.2070312 1.017578 0 1.127962.3927559 2.160947 1.0292969 3 .2881331.379801.6252404.715381 1.0078125 1h.1972656 5.261719 1.503906 1c.554 0 1-.446 1-1v-2.511719-4.4707029c-.320943-.241245-.652924-.4671878-1-.6679687-1.495219-.8649742-3.2115523-1.349094-5-1.3496094z" fill="#fff" fill-opacity=".784314"/><path d="m7.999953 7c-3.280109.0043-6.298117 1.792832-7.876953 4.667969.128945.363734.357439.676587.65625.908203 1.321789-2.791309 4.132254-4.572462 7.220703-4.576172-2.209139 0-4 1.790861-4 4s1.790861 4 4 4 4-1.790861 4-4c.008-2.079511-1.578821-3.81826-3.650391-4 2.961312.134551 5.605464 1.895565 6.871094 4.576172.301515-.233711.531909-.55005.660156-.917969-1.582074-2.87259-4.601418-4.657258-7.880859-4.658203zm0 2c1.656854 0 3 1.343146 3 3s-1.343146 3-3 3-3-1.343146-3-3 1.343146-3 3-3z" fill="#98989d"/><path d="m7.999953 10c-1.104569 0-2 .895431-2 2s.895431 2 2 2 2-.89543 2-2c.02896-.194894.02896-.392997 0-.587891-.174008.38903-.57545.625034-1 .587891-.552285 0-1-.447715-1-1-.03682-.425027.200049-.826612.589844-1-.195534-.02915-.39431-.02915-.589844 0z" fill="url(#c)"/></svg>

<?xml version="1.0" encoding="UTF-8" standalone="no"?>
<svg
   xmlns:dc="http://purl.org/dc/elements/1.1/"
   xmlns:cc="http://creativecommons.org/ns#"
   xmlns:rdf="http://www.w3.org/1999/02/22-rdf-syntax-ns#"
   xmlns:svg="http://www.w3.org/2000/svg"
   xmlns="http://www.w3.org/2000/svg"
   xmlns:xlink="http://www.w3.org/1999/xlink"
   xmlns:sodipodi="http://sodipodi.sourceforge.net/DTD/sodipodi-0.dtd"
   xmlns:inkscape="http://www.inkscape.org/namespaces/inkscape"
   viewBox="0 0 16 16"
   version="1.1"
   id="svg14"
   sodipodi:docname="sc_showtrackedchanges.svg"
   inkscape:export-filename="/home/rizmut/Documents/Rizmut/Github/libreoffice-style-sukapura/images_sukapura/cmd/sc_showtrackedchanges.png"
   inkscape:export-xdpi="96"
   inkscape:export-ydpi="96"
   inkscape:version="0.92.3 (2405546, 2018-03-11)">
  <metadata
     id="metadata20">
    <rdf:RDF>
      <cc:Work
         rdf:about="">
        <dc:format>image/svg+xml</dc:format>
        <dc:type
           rdf:resource="http://purl.org/dc/dcmitype/StillImage" />
        <dc:title></dc:title>
      </cc:Work>
    </rdf:RDF>
  </metadata>
  <defs
     id="defs18">
    <linearGradient
       id="a"
       gradientUnits="userSpaceOnUse"
       x1="10"
       x2="11.500001"
       y1="4"
       y2="2.4999993">
      <stop
         offset="0"
         stop-color="#fff"
         id="stop976" />
      <stop
         offset=".77967989"
         stop-color="#f1f1f1"
         id="stop978" />
      <stop
         offset="1"
         stop-color="#d5d5d5"
         id="stop980" />
    </linearGradient>
    <radialGradient
       id="b"
       cx="10.994179"
       cy="4.4284401"
       gradientTransform="matrix(1.4,4e-8,-1e-8,1.2,-4.39185,-2.314129)"
       gradientUnits="userSpaceOnUse"
       r="5">
      <stop
         offset="0"
         stop-color="#d7d7d7"
         id="stop983" />
      <stop
         offset=".49894297"
         stop-color="#f7f7f7"
         id="stop985" />
      <stop
         offset="1"
         stop-color="#fff"
         id="stop987" />
    </radialGradient>
    <linearGradient
       gradientTransform="translate(-14.5,-0.5)"
       id="a-3"
       gradientUnits="userSpaceOnUse"
       x1="14"
       x2="13.79661"
       y1="22"
       y2="2.1355929">
      <stop
         offset="0"
         stop-color="#0040dd"
         id="stop1105" />
      <stop
         offset="1"
         stop-color="#0a84ff"
         id="stop1107" />
    </linearGradient>
    <linearGradient
       inkscape:collect="always"
       xlink:href="#a-3"
       id="linearGradient870"
       x1="8"
       y1="14"
       x2="8"
       y2="10"
       gradientUnits="userSpaceOnUse" />
  </defs>
  <sodipodi:namedview
     pagecolor="#ffffff"
     bordercolor="#666666"
     borderopacity="1"
     objecttolerance="10"
     gridtolerance="10"
     guidetolerance="10"
     inkscape:pageopacity="0"
     inkscape:pageshadow="2"
     inkscape:window-width="1366"
     inkscape:window-height="685"
     id="namedview16"
     showgrid="true"
     inkscape:zoom="10.429825"
     inkscape:cx="10.902627"
     inkscape:cy="1.8345419"
     inkscape:window-x="0"
     inkscape:window-y="0"
     inkscape:window-maximized="1"
     inkscape:current-layer="svg14">
    <inkscape:grid
       type="xygrid"
       id="grid831"
       spacingx="0.5"
       spacingy="0.5"
       empspacing="2" />
  </sodipodi:namedview>
  <path
     style="fill:url(#b)"
     d="M 3,1 V 15 H 13 V 5.6367188 3.7050781 L 10.304688,1 Z M 13,13.496094 11.505859,15 H 13 Z"
     id="path990"
     inkscape:connector-curvature="0"
     sodipodi:nodetypes="ccccccccccc" />
  <path
     style="fill:#98989d;fill-opacity:1"
     d="M 3 0 C 2.446 0 2 0.446 2 1 L 2 15 C 2 15.554 2.446 16 3 16 L 5 16 L 5.234375 16 L 10.496094 16 L 12 16 L 13 16 C 13.554 16 14 15.554 14 15 L 14 12.488281 L 14 5.59375 L 14 4.5 L 14 3.6367188 L 10.363281 0 L 9.5 0 L 3 0 z M 3 1 L 9 1 L 9 4.5 C 9 4.777 9.223 5 9.5 5 L 13 5 L 13 5.6367188 L 13 13.5 L 13 15 L 12 15 L 11.505859 15 L 5.2246094 15 L 5 15 L 3 15 L 3 1 z M 10 1 L 13 4 L 10 4 L 10 1 z M 4.5 4 C 4.223 4 4 4.223 4 4.5 C 4 4.777 4.223 5 4.5 5 L 7.5 5 C 7.777 5 8 4.777 8 4.5 C 8 4.223 7.777 4 7.5 4 L 4.5 4 z M 4.5 10 C 4.223 10 4 10.223 4 10.5 C 4 10.777 4.223 11 4.5 11 L 7.1777344 11 L 7.9355469 10.267578 C 7.8514923 10.1103 7.6914669 10 7.5 10 L 4.5 10 z M 4.5 13 C 4.223 13 4 13.223 4 13.5 C 4 13.777 4.223 14 4.5 14 L 5.4941406 14 L 5.7636719 13 L 4.5 13 z "
     id="path4" />
  <rect
     fill="#d65532"
     height="1"
     ry=".5"
     width="7"
     x="4"
     y="7"
     id="rect6"
     style="fill:#ff9f0a;fill-opacity:1" />
  <path
     inkscape:connector-curvature="0"
     style="fill:url(#a)"
     d="m 10,1 3,3 h -3 z"
     id="path994" />
  <path
     style="fill:#ffffff;fill-opacity:0.78431374"
     d="M 7.9980469 6 C 6.2098094 6.0023465 4.4942899 6.4889435 3 7.3554688 C 2.652567 7.556942 2.321176 7.78336 2 8.0253906 L 2 12.429688 C 2.2846051 11.974674 2.6281379 11.570001 3 11.193359 C 3.0691983 11.123272 3.1358737 11.050456 3.2070312 10.982422 C 3.1336834 11.321649 3 11.639689 3 12 C 3 13.127962 3.3927559 14.160947 4.0292969 15 C 4.31743 15.379801 4.6545373 15.715381 5.0371094 16 L 5.234375 16 L 10.496094 16 L 12 16 L 13 16 C 13.554 16 14 15.554 14 15 L 14 12.488281 L 14 8.0175781 C 13.679057 7.7763331 13.347076 7.5503903 13 7.3496094 C 11.504781 6.4846352 9.7884477 6.0005154 8 6 L 7.9980469 6 z "
     id="path838" />
  <path
     inkscape:connector-curvature="0"
     style="fill:#98989d;fill-opacity:1"
     d="M 7.999953,7 C 4.719844,7.0043 1.701836,8.792832 0.123,11.667969 0.251945,12.031703 0.480439,12.344556 0.77925,12.576172 2.101039,9.784863 4.911504,8.00371 7.999953,8 c -2.209139,0 -4,1.790861 -4,4 0,2.209139 1.790861,4 4,4 2.209139,0 4,-1.790861 4,-4 0.008,-2.079511 -1.578821,-3.81826 -3.650391,-4 2.961312,0.134551 5.605464,1.895565 6.871094,4.576172 0.301515,-0.233711 0.531909,-0.55005 0.660156,-0.917969 C 14.298738,8.785613 11.279394,7.000945 7.999953,7 Z m 0,2 c 1.656854,0 3,1.343146 3,3 0,1.656854 -1.343146,3 -3,3 -1.656854,0 -3,-1.343146 -3,-3 0,-1.656854 1.343146,-3 3,-3 z"
     id="path10" />
  <path
     inkscape:connector-curvature="0"
     style="fill:url(#linearGradient870);fill-opacity:1"
     d="m 7.999953,10 c -1.104569,0 -2,0.895431 -2,2 0,1.104569 0.895431,2 2,2 1.104569,0 2,-0.89543 2,-2 0.02896,-0.194894 0.02896,-0.392997 0,-0.587891 -0.174008,0.38903 -0.57545,0.625034 -1,0.587891 -0.552285,0 -1,-0.447715 -1,-1 C 7.963133,10.574973 8.200002,10.173388 8.589797,10 8.394263,9.97085 8.195487,9.97085 7.999953,10 Z"
     id="path12" />
</svg>
